src/assets/icons/miscategorized.svg

<?xml version="1.0" encoding="UTF-8"?>
<svg width="29px" height="26px" viewBox="0 0 29 26" version="1.1" xmlns="http://www.w3.org/2000/svg" xmlns:xlink="http://www.w3.org/1999/xlink">
    <!-- Generator: sketchtool 41.2 (35397) - http://www.bohemiancoding.com/sketch -->
    <title>A3969718-7F04-479B-999E-52817CBBCD21</title>
    <desc>Created with sketchtool.</desc>
    <defs></defs>
    <g id="Report" stroke="none" stroke-width="1" fill="none" fill-rule="evenodd">
        <g id="MVP-1.3---Report--Listing" transform="translate(-574.000000, -465.000000)" fill="#333333">
            <g id="Overlay-Report-Listing" transform="translate(97.000000, 186.000000)">
                <g id="Group" transform="translate(461.000000, 262.000000)">
                    <path d="M41.9880721,20.6973454 L30.7893817,20.6973454 L28.5462307,20.6973454 L27.5280386,18.4354233 C27.1551755,17.605227 26.2388027,17.0355514 25.3855691,17.0355514 L25.3855691,17 L18.4530465,17 C17.1768935,17 16,18.0346879 16,19.3108409 L16,20.5551398 L16,24.679102 L16,40.2150631 C16,41.4912161 17.1768935,42.5970067 18.4530465,42.5970067 L41.9880721,42.5970067 C43.2642251,42.5970067 44.1567074,41.4912161 44.1567074,40.2150631 L44.1567074,22.8659807 C44.1567074,21.5898277 43.2642251,20.6973454 41.9880721,20.6973454 Z M42.4502403,40.2150631 C42.4502403,40.548393 42.321402,40.8905396 41.9880721,40.8905396 L18.4530465,40.8905396 C18.1197166,40.8905396 17.7064671,40.548393 17.7064671,40.2150631 L17.7064671,24.679102 L17.7064671,20.5551398 L17.7064671,19.3108409 C17.7064671,18.977511 18.1197166,18.7064671 18.4530465,18.7064671 L25.3855691,18.7064671 L25.4199829,18.7064671 C25.6574662,18.7064671 25.8912522,18.8463974 25.9885209,19.0634032 L26.7055215,20.6973454 L25.9543915,20.6973454 C25.4831222,20.6973454 25.101158,21.0793096 25.101158,21.550579 C25.101158,22.0218483 25.4831222,22.4038125 25.9543915,22.4038125 L28.5462307,22.4038125 L30.7893817,22.4038125 L41.9880721,22.4038125 C42.321402,22.4038125 42.4502403,22.5326508 42.4502403,22.8659807 L42.4502403,40.2150631 Z M31.4270884,31.7852862 L35.0385417,28.1738329 C35.3718716,27.8410718 35.3718716,27.3004062 35.0385417,26.9673607 C34.7054962,26.6340308 34.1651149,26.6340308 33.8320694,26.9673607 L30.2206162,30.5788139 L26.6091629,26.9673607 C26.2761174,26.6340308 25.7357362,26.6340308 25.4024063,26.9673607 C25.0693608,27.3004062 25.0693608,27.8410718 25.4026907,28.1738329 L29.0141439,31.7852862 L25.3111103,35.4880354 C24.9777804,35.8210809 24.9777804,36.3617465 25.3111103,36.6945076 C25.4774908,36.8611726 25.6959186,36.9445051 25.9143464,36.9445051 C26.1327742,36.9445051 26.351202,36.8611726 26.5175825,36.6945076 L30.2206162,32.9917584 L33.9233654,36.6945076 C34.0900304,36.8611726 34.3084582,36.9445051 34.5266015,36.9445051 C34.7450293,36.9445051 34.9634571,36.8611726 35.1301221,36.6945076 C35.4631676,36.3617465 35.4631676,35.8210809 35.1298377,35.4880354 L31.4270884,31.7852862 Z" id="report_wrong_category"></path>
                </g>
            </g>
        </g>
    </g>
</svg>

<svg width="29" height="26" viewBox="0 0 29 26" xmlns="http://www.w3.org/2000/svg"><g id="Report" fill="none" fill-rule="evenodd"><g id="MVP-1.3---Report--Listing" transform="translate(-574 -465)" fill="#333"><g id="Overlay-Report-Listing" transform="translate(97 186)"><g id="Group" transform="translate(461 262)"><path d="M41.988 20.697H28.546l-1.018-2.262c-.373-.83-1.29-1.4-2.142-1.4V17h-6.933C17.177 17 16 18.035 16 19.31v20.905c0 1.276 1.177 2.382 2.453 2.382h23.535c1.276 0 2.169-1.106 2.169-2.382V22.866c0-1.276-.893-2.169-2.169-2.169zm.462 19.518c0 .333-.129.676-.462.676H18.453c-.333 0-.747-.343-.747-.676V19.311c0-.333.414-.605.747-.605h6.967a.63.63 0 0 1 .569.357l.717 1.634h-.752a.853.853 0 1 0 0 1.707H41.99c.332 0 .461.129.461.462v17.35zm-11.023-8.43l3.612-3.611a.853.853 0 1 0-1.207-1.207l-3.611 3.612-3.612-3.612a.853.853 0 1 0-1.206 1.207l3.611 3.611-3.703 3.703a.853.853 0 1 0 1.207 1.207l3.703-3.703 3.702 3.703a.85.85 0 0 0 1.207 0 .853.853 0 0 0 0-1.207l-3.703-3.703z" id="report_wrong_category"/></g></g></g></g></svg>
